public/library/meow-text-light.svg

<svg width="102" height="24" viewBox="0 0 102 24" fill="none" xmlns="http://www.w3.org/2000/svg"><g clip-path="url(#clip0_912_3412)"><mask id="mask0_912_3412" maskUnits="userSpaceOnUse" x="0" y="-5" width="103" height="34" style="mask-type: luminance;"><path d="M102 -4.28572H0.00012207V28.3543H102V-4.28572Z" fill="white"/></mask><g mask="url(#mask0_912_3412)"><path d="M48.2407 7.06062C47.3808 7.06062 46.589 7.22562 45.8654 7.55493C45.1416 7.88493 44.5435 8.35053 44.0706 8.95216C43.669 8.3363 43.1391 7.86685 42.4796 7.54439C41.8204 7.22176 41.0827 7.06053 40.2659 7.06053C39.5203 7.06053 38.8363 7.18979 38.2129 7.44753C37.5897 7.70553 37.0632 8.07856 36.633 8.56542V7.23265H33.4302V18.7974H36.7836V12.9937C36.7836 11.9905 37.0124 11.2346 37.4714 10.7258C37.9298 10.2172 38.5464 9.96265 39.32 9.96265C40.782 9.96265 41.5126 10.8728 41.5126 12.6926V18.7972H44.866V12.9937C44.866 11.9905 45.0947 11.2346 45.5538 10.7258C46.0122 10.2172 46.6356 9.96265 47.424 9.96265C48.1257 9.96265 48.6668 10.1881 49.0469 10.6395C49.4263 11.0912 49.6164 11.7758 49.6164 12.6926V18.7972H52.9697V12.1764C52.9697 10.4714 52.5431 9.19242 51.6907 8.33939C50.838 7.48747 49.6878 7.06062 48.2407 7.06062Z" fill="currentColor"/><path d="M64.4912 7.7915C63.574 7.30465 62.5487 7.06053 61.4172 7.06053C60.2565 7.06053 59.2063 7.31527 58.2681 7.82382C57.3292 8.33262 56.5912 9.04199 56.0543 9.95167C55.5167 10.862 55.2482 11.8831 55.2482 13.0149C55.2482 14.1614 55.5202 15.1859 56.0647 16.0887C56.6092 16.9917 57.3833 17.6977 58.3863 18.206C59.3892 18.7148 60.543 18.9693 61.8471 18.9693C63.9391 18.9693 65.5297 18.3458 66.6189 17.0992L64.8349 15.1642C64.4337 15.5513 63.9997 15.8347 63.5344 16.0134C63.0685 16.1928 62.5349 16.2823 61.9333 16.2823C61.059 16.2823 60.3281 16.0747 59.7404 15.6588C59.1528 15.2435 58.7801 14.6774 58.6228 13.9606H67.3715C67.4145 13.4018 67.4361 13.1007 67.4361 13.0576C67.4361 11.854 67.1747 10.7974 66.6516 9.88713C66.1278 8.97762 65.4079 8.27896 64.4912 7.7915ZM58.5797 12.0047C58.6944 11.2598 59.0095 10.6721 59.5255 10.2421C60.0414 9.81213 60.6787 9.59699 61.4388 9.59699C62.1838 9.59699 62.8145 9.8159 63.3305 10.2528C63.8459 10.6902 64.161 11.2738 64.2764 12.0047H58.5797Z" fill="currentColor"/><path d="M78.4422 7.82382C77.4823 7.31536 76.3933 7.06053 75.1753 7.06053C73.957 7.06053 72.8643 7.31527 71.8968 7.82382C70.9295 8.33262 70.1735 9.03856 69.6295 9.94122C69.0844 10.844 68.8124 11.8684 68.8124 13.0149C68.8124 14.1614 69.0844 15.1859 69.6295 16.0887C70.1734 16.9917 70.9295 17.6977 71.8968 18.206C72.8643 18.7148 73.957 18.9693 75.1753 18.9693C76.3932 18.9693 77.4823 18.7148 78.4422 18.206C79.4027 17.6977 80.1546 16.9917 80.6998 16.0887C81.2436 15.1859 81.5162 14.1614 81.5162 13.0149C81.5162 11.8684 81.2436 10.844 80.6998 9.94122C80.1546 9.03856 79.4027 8.33262 78.4422 7.82382ZM77.2926 15.3472C76.741 15.9276 76.035 16.218 75.1754 16.218C74.3151 16.218 73.6057 15.9276 73.0473 15.3472C72.4881 14.7668 72.2086 13.9895 72.2086 13.0149C72.2086 12.0409 72.4881 11.2631 73.0473 10.6826C73.6057 10.1025 74.3151 9.81222 75.1754 9.81222C76.035 9.81222 76.741 10.1025 77.2926 10.6826C77.8441 11.2631 78.1202 12.0409 78.1202 13.0149C78.1202 13.9896 77.8441 14.7668 77.2926 15.3472Z" fill="currentColor"/><path d="M99.0346 7.23264L96.2189 15.0572L93.4675 7.23264H90.6303L87.7932 15.0572L85.0629 7.23264H81.9027L86.0729 18.7973H89.2975L91.9846 11.6177L94.5852 18.7973H97.8097L102.001 7.23264H99.0346Z" fill="currentColor"/><path d="M22.6437 0.584274C22.4262 0.632214 17.4077 1.74767 12.1594 3.66375C6.91128 1.74758 1.89312 0.632214 1.67586 0.584274L0.000244141 0.214691V13.2937C0.000244141 14.2034 0.133269 15.087 0.383426 15.9296C0.510416 16.3566 0.667156 16.7731 0.851777 17.1773C2.63695 21.0842 7.03274 23.8542 12.1594 23.8542C18.046 23.8542 22.9688 20.2027 24.0832 15.3712C24.119 15.215 24.151 15.0581 24.179 14.9C24.2408 14.5506 24.2821 14.1958 24.303 13.8364C24.3138 13.6565 24.3194 0.214691 24.3194 0.214691L22.6437 0.584274ZM21.5616 3.68125V8.49761C20.2238 7.38607 18.3967 6.30504 16.0665 5.24681C18.2581 4.5491 20.24 4.01556 21.5616 3.68125ZM12.1594 21.0964C6.97537 21.0961 2.75799 17.5959 2.75799 13.2937C2.75799 12.3573 3.68586 9.85378 12.1594 6.60804C20.6332 9.85387 21.5616 12.3574 21.5616 13.2937C21.5616 13.5627 21.5454 13.8283 21.5126 14.0903C21.4648 14.4835 21.381 14.8679 21.2651 15.2413C20.2196 18.6042 16.5335 21.0964 12.1594 21.0964ZM2.7579 3.68125C4.07924 4.01556 6.06144 4.5491 8.25309 5.24681C5.9229 6.30504 4.09556 7.38607 2.7579 8.49761V3.68125Z" fill="#FF6631"/></g></g><defs><clipPath id="clip0_912_3412"><rect width="102" height="24" fill="white"/></clipPath></defs></svg>

<svg xmlns="http://www.w3.org/2000/svg" width="102" height="24" fill="none" viewBox="0 0 102 24"><g clip-path="url(#a)"><mask id="b" width="103" height="34" x="0" y="-5" maskUnits="userSpaceOnUse" style="mask-type:luminance"><path fill="#fff" d="M102-4.286H0v32.64h102z"/></mask><g mask="url(#b)"><path fill="currentColor" d="M48.24 7.06q-1.29 0-2.375.495a4.75 4.75 0 0 0-1.794 1.397 3.9 3.9 0 0 0-1.591-1.408q-.99-.483-2.214-.483-1.119 0-2.053.387a4.24 4.24 0 0 0-1.58 1.117V7.233H33.43v11.564h3.354v-5.803q0-1.505.687-2.268t1.849-.763q2.193 0 2.193 2.73v6.104h3.353v-5.803q0-1.505.688-2.268t1.87-.763q1.053 0 1.623.677t.57 2.053v6.104h3.353v-6.62q0-2.559-1.28-3.838-1.278-1.278-3.45-1.278M64.491 7.792q-1.376-.73-3.074-.731-1.74 0-3.149.763a5.64 5.64 0 0 0-2.214 2.128q-.806 1.365-.806 3.063 0 1.719.817 3.074.816 1.355 2.321 2.117 1.505.763 3.461.763 3.138 0 4.772-1.87l-1.784-1.935q-.602.58-1.3.85-.699.268-1.602.268-1.311 0-2.193-.623a2.72 2.72 0 0 1-1.117-1.698h8.749q.064-.84.064-.903 0-1.806-.784-3.17a5.35 5.35 0 0 0-2.16-2.096m-5.911 4.213q.171-1.118.946-1.763.773-.645 1.913-.645 1.118 0 1.892.656.772.655.945 1.752zM78.442 7.824q-1.44-.763-3.267-.763t-3.278.763a5.67 5.67 0 0 0-2.268 2.117q-.817 1.354-.817 3.074t.817 3.074a5.66 5.66 0 0 0 2.268 2.117q1.45.763 3.278.763 1.827 0 3.267-.763a5.7 5.7 0 0 0 2.258-2.117q.816-1.355.816-3.074 0-1.72-.816-3.074a5.7 5.7 0 0 0-2.258-2.117m-1.15 7.523q-.827.87-2.117.871-1.29 0-2.128-.87-.838-.872-.838-2.333t.838-2.332q.838-.87 2.128-.87t2.118.87.827 2.332-.827 2.332M99.035 7.233l-2.816 7.824-2.751-7.824H90.63l-2.837 7.824-2.73-7.824h-3.16l4.17 11.564h3.225l2.687-7.18 2.6 7.18h3.225L102 7.233z"/><path fill="#ff6631" d="M22.644.584c-.218.048-5.236 1.164-10.485 3.08C6.911 1.748 1.893.632 1.676.584L0 .214v13.08c0 .91.133 1.793.383 2.636q.191.64.469 1.247c1.785 3.907 6.18 6.677 11.307 6.677 5.887 0 10.81-3.651 11.924-8.483q.054-.234.096-.471.093-.524.124-1.064c.01-.18.016-13.621.016-13.621zm-1.082 3.097v4.817c-1.338-1.112-3.165-2.193-5.495-3.251a97 97 0 0 1 5.495-1.566m-9.403 17.415c-5.184 0-9.401-3.5-9.401-7.802 0-.937.928-3.44 9.401-6.686 8.474 3.246 9.403 5.75 9.403 6.686q0 .403-.05.796a6.5 6.5 0 0 1-.247 1.151c-1.045 3.363-4.732 5.855-9.106 5.855M2.758 3.681c1.321.335 3.303.868 5.495 1.566-2.33 1.058-4.157 2.14-5.495 3.25z"/></g></g><defs><clipPath id="a"><path fill="#fff" d="M0 0h102v24H0z"/></clipPath></defs></svg>
